X:78
T: Xiu hua
N: C0100
O: China,Hubei, Tianmen
S: I, 358]
N: neues Volkslied
N: Phrasen 2 und 7: Phrasenende jeweils schon auf der Sekunde im zweiten
N: Takt?,  im Text ein ",")
N: Das Lied besteht aus 3 Teilen: Die Phrasen 1-3 werden zweimal wieder-
N: holt,  Zahl der Strophen), Phrasen 4 und 5 fuenfmal, 6-8 viermal.
N: Vor-, Zwischen- und Nachspiele weggelassen. Eine Verzierung im Mittel-
N: teil.
R: Xiaodiao. Xin minge]
M: 2/4
L: 1/16
K: Bb
c2dfdcBG | c8 | GBcdcBGD | F8 |
G2GBc2d2 | fgfdc3B | B2BGB4 |
f3dcdB2 | GBF2B3G | F8 |
F2FGB2GF | D2F4G2 | B2c2f2fd | cdB6 |
G2F4G2 | B2GBc2d2 | cdcBG4 | F2GBGFDC | F8 |
c2dfdcBG | c8 | GBcdcBGD | F8 |
G2GBc2d2 | fgfdc4 | B2GBB4 |
f3dcdB2 | GBF2B3G | F8

@@@ Tune index: 6079
